assets/icons/experimental/edit-pen.svg

<svg width="18" height="18" viewBox="0 0 18 18" fill="none" xmlns="http://www.w3.org/2000/svg">
<path d="M1.89474 16.1053H3.24474L13.4526 5.89737L12.1026 4.54737L1.89474 14.7553V16.1053ZM0.947368 18C0.678947 18 0.453947 17.9092 0.272368 17.7276C0.0907895 17.5461 0 17.3211 0 17.0526V14.7553C0 14.5026 0.0473684 14.2618 0.142105 14.0329C0.236842 13.8039 0.371053 13.6026 0.544737 13.4289L13.4526 0.544737C13.6421 0.371053 13.8513 0.236842 14.0803 0.142105C14.3092 0.0473684 14.55 0 14.8026 0C15.0553 0 15.3 0.0473684 15.5368 0.142105C15.7737 0.236842 15.9789 0.378947 16.1526 0.568421L17.4553 1.89474C17.6447 2.06842 17.7829 2.27368 17.8697 2.51053C17.9566 2.74737 18 2.98421 18 3.22105C18 3.47368 17.9566 3.71447 17.8697 3.94342C17.7829 4.17237 17.6447 4.38158 17.4553 4.57105L4.57105 17.4553C4.39737 17.6289 4.19605 17.7632 3.96711 17.8579C3.73816 17.9526 3.49737 18 3.24474 18H0.947368ZM12.7658 5.23421L12.1026 4.54737L13.4526 5.89737L12.7658 5.23421Z" fill="#675B5B"/>
</svg>

<svg width="24" height="24" viewBox="0 0 24 24" fill="none" xmlns="http://www.w3.org/2000/svg">
    <path d="M1.895 16.105h1.35L13.453 5.897l-1.35-1.35L1.895 14.755v1.35zM.947 18a.917.917 0 01-.675-.272.916.916 0 01-.272-.675v-2.298a1.87 1.87 0 01.545-1.326L13.453.545c.19-.174.398-.308.627-.403A1.87 1.87 0 0114.803 0c.252 0 .497.047.734.142.237.095.442.237.616.426l1.302 1.327c.19.173.328.379.415.616a2.05 2.05 0 010 1.432 1.775 1.775 0 01-.415.628L4.571 17.455A1.871 1.871 0 013.245 18H.947zM12.766 5.234l-.663-.687 1.35 1.35-.687-.663z" fill="currentColor"/>
</svg>
